!!!COM: Palestrina, Giovanni Perluigi da
!!!OPR: L'homme arme (1570)
!!!OTL: Agnus II
**kern	**kern	**kern	**kern	**kern	**kern
*Ibass	*Itenor	*Itenor	*Icalto	*Icant	*Icant
!Bassus	!Tenor 2	!Tenor 1	!Altus	!Cantus 2	!Cantus 1
*clefF4	*clefGv2	*clefGv2	*clefG2	*clefG2	*clefG2
*k[]	*k[]	*k[]	*k[]	*k[]	*k[]
*G:mix	*G:mix	*G:mix	*G:mix	*G:mix	*G:mix
*M4/2	*M4/2	*M4/2	*M4/2	*M4/2	*M4/2
=1	=1	=1	=1	=1	=1
0r	0d	[0G	0r	1.g	0r
.	.	.	.	2a	.
=2	=2	=2	=2	=2	=2
0r	0d	1G_	0r	2b	1.g
.	.	.	.	2g	.
.	.	1G_	.	2b	.
.	.	.	.	2cc	2a
=3	=3	=3	=3	=3	=3
0r	0g	0G]	0r	2.dd	2b
.	.	.	.	.	2g
.	.	.	.	4cc	.
.	.	.	.	2dd	2b
.	.	.	.	2ee	2cc
=4	=4	=4	=4	=4	=4
0r	0g	[0G	0r	2.b	2.dd
.	.	.	.	4a	4cc
.	.	.	.	2b	2dd
.	.	.	.	2cc	2ee
=5	=5	=5	=5	=5	=5
0r	2r	1G_	0r	2dd	2.b
.	2.g	.	.	2ee	.
.	.	.	.	.	4a
.	.	1G_	.	2dd	2b
.	4f	.	.	.	.
.	2e	.	.	[2cc	2cc
=6	=6	=6	=6	=6	=6
0r	2.d	0G]	1.g	2cc]	0dd
.	.	.	.	4b	.
.	4c	.	.	4a	.
.	1d	.	.	1b	.
.	.	.	2f	.	.
=7	=7	=7	=7	=7	=7
1.C	2.c	[0c	2e	1cc	0ee
.	.	.	2c	.	.
.	4B	.	.	.	.
.	1A	.	2e	1r	.
2D	.	.	2f	.	.
=8	=8	=8	=8	=8	=8
2E	1G	1c_	2g	1.cc	1r
2C	.	.	2e	.	.
2.F	1A	1c_	1f	.	[1cc
.	.	.	.	2b	.
4G	.	.	.	.	.
=9	=9	=9	=9	=9	=9
2A	1r	0c]	[0e	1a	2cc]
2B	.	.	.	.	2dd
1c	2r	.	.	1g	2ee
.	2e	.	.	.	2cc
=10	=10	=10	=10	=10	=10
1A	1a	[0c	1e]	2.cc	2ee
.	.	.	.	.	2ff
.	.	.	.	4dd	.
1E	4g	.	2r	1ee	1gg
.	4f	.	.	.	.
.	4e	.	[2c	.	.
.	4d	.	.	.	.
=11	=11	=11	=11	=11	=11
1F	4c	1c_	2c]	2.a	1ff
.	4B	.	.	.	.
.	2A	.	2d	.	.
.	.	.	.	4b	.
[1C	[1G	1c_	2e	1cc	[1ee
.	.	.	2c	.	.
=12	=12	=12	=12	=12	=12
2C]	0G]	0c]	2e	1.g	0ee]
2D	.	.	2f	.	.
2E	.	.	1g	.	.
2F	.	.	.	2a	.
=13	=13	=13	=13	=13	=13
[0G	2r	[0B	1.g	2b	0dd
.	1G	.	.	2g	.
.	.	.	.	2b	.
.	2A	.	4f	2cc	.
.	.	.	4e	.	.
=14	=14	=14	=14	=14	=14
0G]	2B	1B_	0d	2.dd	1.g
.	2G	.	.	.	.
.	.	.	.	4cc	.
.	2B	1B_	.	2b	.
.	2c	.	.	2a	2a
=15	=15	=15	=15	=15	=15
0G	1d	0B]	2r	0g	2b
.	.	.	1d	.	2g
.	1g	.	.	.	2.b
.	.	.	2e	.	.
.	.	.	.	.	4cc
=16	=16	=16	=16	=16	=16
0D	2.f	[0A	2f	2a	2.dd
.	.	.	2d	2.ff	.
.	4e	.	.	.	4cc
.	4d	.	2.f	.	4dd
.	4c	.	.	4ee	4ee
.	2d	.	.	[2dd	2ff
.	.	.	4g	.	.
=17	=17	=17	=17	=17	=17
0AA	0e	1A_	0a	2dd]	0ee
.	.	.	.	4cc	.
.	.	.	.	4b	.
.	.	1A_	.	1cc#	.
=18	=18	=18	=18	=18	=18
1D	0d	0A]	1f#	1dd	1a
1D	.	.	2r	2r	2r
.	.	.	2f#	2dd	2a
=19	=19	=19	=19	=19	=19
1G	0r	[0G	1g	1dd	1b
2C	.	.	2e	2ee	2cc
2C	.	.	2c	2ee	2cc
=20	=20	=20	=20	=20	=20
2C	0r	1G_	2g	2cc	2ee
2BB	.	.	2g	2dd	2dd
1C	.	1G_	1g	1ee	1cc
=21	=21	=21	=21	=21	=21
1G	2r	0G]	1g	[0dd	2b
.	2d	.	.	.	2g
1r	1g	.	1r	.	1b
=22	=22	=22	=22	=22	=22
1r	2f#	[0d	0r	0dd]	2a
.	2g	.	.	.	2g
1D	2g	.	.	.	2a
.	2f	.	.	.	2a
=23	=23	=23	=23	=23	=23
0G	2g	1d_	2r	2r	4b
.	.	.	.	.	4a
.	2.G	.	2d	2g	4b
.	.	.	.	.	4cc
.	.	1d_	1g	1b	1dd
.	4A	.	.	.	.
.	4B	.	.	.	.
.	4c	.	.	.	.
=24	=24	=24	=24	=24	=24
0D	2d	0d]	2f#	2a	0dd
.	2B	.	2g	2g	.
.	1A	.	2g	2a	.
.	.	.	2f#	2a	.
=25	=25	=25	=25	=25	=25
0r	1G	[0d	1g	1b	2r
.	.	.	.	.	2dd
.	1r	.	[1a	2a	2.ff
.	.	.	.	2dd	.
.	.	.	.	.	4ee
=26	=26	=26	=26	=26	=26
0r	0r	1d_	1a]	2.ff	2dd
.	.	.	.	.	2cc
.	.	.	.	4ee	.
.	.	1d_	1r	2dd	2b-
.	.	.	.	2cc	[2a
=27	=27	=27	=27	=27	=27
0r	0r	0d]	1r	1b-	2a]
.	.	.	.	.	1g
.	.	.	2r	1a	.
.	.	.	2a	.	2f#
=28	=28	=28	=28	=28	=28
2r	2r	[0G	1.b-	1g	1g
2G	2d	.	.	.	.
[1B-	[1d	.	.	1r	1r
.	.	.	2a	.	.
=29	=29	=29	=29	=29	=29
2B-]	2d]	1G_	2g	1dd	0r
2A	2c	.	2f	.	.
2G	2B	1G_	2e	2ee	.
2F	2A	.	[2d	2ff	.
=30	=30	=30	=30	=30	=30
2.E	1B	0G]	2d]	1gg	0r
.	.	.	4c	.	.
4D	.	.	4B	.	.
1E	1e	.	2c	1g	.
.	.	.	[2g	.	.
=31	=31	=31	=31	=31	=31
[0D	0A	[0d	2g]	1a	2r
.	.	.	4f	.	2dd
.	.	.	4e	.	.
.	.	.	2f	2r	2dd
.	.	.	2d	2dd	[2ff
=32	=32	=32	=32	=32	=32
0D]	2r	1d_	0a	2dd	2ff]
.	2A	.	.	1ff	2dd
.	2A	1d_	.	.	2.ff
.	[2f	.	.	2dd	.
.	.	.	.	.	4ee
=33	=33	=33	=33	=33	=33
0r	2f]	0d]	1r	2.ff	2.dd
.	2d	.	.	.	.
.	.	.	.	4ee	4cc
.	2.f	.	2r	2.dd	2b-
.	.	.	2a	.	2a
.	4e	.	.	4cc	.
=34	=34	=34	=34	=34	=34
0r	2.d	[0d	2f	4b-	1dd
.	.	.	.	4a	.
.	.	.	1f	2.a	.
.	4c	.	.	.	.
.	1B-	.	.	.	2r
.	.	.	.	4g	.
.	.	.	2d	4g	2dd
.	.	.	.	8f	.
.	.	.	.	8g	.
=35	=35	=35	=35	=35	=35
1D	1A	1d_	2.f	1a	2dd
.	.	.	.	.	1ff
.	.	.	4g	.	.
2D	1r	1d_	2a	[1dd	.
[2B-	.	.	2f	.	2dd
=36	=36	=36	=36	=36	=36
2B-]	2r	0d]	2.b-	1dd]	2ff
2G	2G	.	.	.	2gg
.	.	.	4a	.	.
2.B-	2G	.	2g	1r	[1dd
.	[2B-	.	2f	.	.
4A	.	.	.	.	.
=37	=37	=37	=37	=37	=37
2G	2B-]	[0d	2g	2r	1dd]
2F	2A	.	1a	1dd	.
1G	1B-	.	.	.	1r
.	.	.	2g	2dd	.
=38	=38	=38	=38	=38	=38
1D	1A	1d_	2.a	2ff	2r
.	.	.	.	2dd	2a
.	.	.	4g	.	.
1r	2r	1d_	2f	4ff	2a
.	.	.	.	4ee	.
.	[2G	.	2g	4dd	2b-
.	.	.	.	4cc	.
=39	=39	=39	=39	=39	=39
0r	2G]	0d]	2d	2b-	2g
.	2F	.	1f	2a	2.a
.	2B-	.	.	1dd	.
.	.	.	.	.	8g
.	.	.	.	.	8f
.	2B-	.	2d	.	2g
=40	=40	=40	=40	=40	=40
1F	0A	[0c	1.f	2r	1a
.	.	.	.	2a	.
2F	.	.	.	2a	2r
[2A	.	.	4e	[2cc	2a
.	.	.	4d	.	.
=41	=41	=41	=41	=41	=41
2A]	1A	1c_	2e	2cc]	2a
2F	.	.	2f	2a	1cc
2.A	1r	1c_	1e	2.cc	.
.	.	.	.	.	2a
4G	.	.	.	4b	.
=42	=42	=42	=42	=42	=42
2F	0r	0c]	2f	2a	4.cc
.	.	.	.	.	8dd
2E	.	.	1g	2g	2ee
1A	.	.	.	1a	2cc
.	.	.	2f#	.	2a
=43	=43	=43	=43	=43	=43
0G	2r	[0B	[0g	2.b	1dd
.	1d	.	.	.	.
.	.	.	.	4cc	.
.	.	.	.	1dd	2r
.	2d	.	.	.	[2b
=44	=44	=44	=44	=44	=44
1E	1.e	1B_	0g]	1r	2b]
.	.	.	.	.	2g
2E	.	1B_	.	2r	2.b
2G	2d	.	.	[2b	.
.	.	.	.	.	4cc
=45	=45	=45	=45	=45	=45
2G	0g	0B]	1r	2b]	2dd
2E	.	.	.	2g	2ee
1G	.	.	2r	2.b	2dd
.	.	.	2d	.	2g
.	.	.	.	4cc	.
=46	=46	=46	=46	=46	=46
1D	2.f	[0A	2d	2dd	2r
.	.	.	1f	2dd	2a
.	8e	.	.	.	.
.	8d	.	.	.	.
1r	2.c	.	.	2r	2a
.	.	.	2e	2a	[2cc
.	4d	.	.	.	.
=47	=47	=47	=47	=47	=47
0r	1e	1A_	0a	2a	2cc]
.	.	.	.	1cc	2a
.	2A	1A_	.	.	2.cc
.	[2a	.	.	2a	.
.	.	.	.	.	4dd
=48	=48	=48	=48	=48	=48
0r	4a]	0A]	0a	2cc	2ee
.	4g	.	.	.	.
.	2f	.	.	2dd	1dd
.	1e	.	.	1ee	.
.	.	.	.	.	2cc#
=49	=49	=49	=49	=49	=49
1D	2.f	[0A	2r	0a	1dd
.	.	.	2f	.	.
.	4e	.	.	.	.
2D	2d	.	2f	.	2.ff
[2F	4c	.	[2a	.	.
.	4B-	.	.	.	8ee
.	.	.	.	.	8dd
=50	=50	=50	=50	=50	=50
2F]	2A	1A_	2a]	2r	2cc
2D	2d	.	1f	2.ff	2dd
2.F	2c	1A_	.	.	[1a
.	.	.	.	8ee	.
.	.	.	.	8dd	.
.	2A	.	[2a	2cc	.
4E	.	.	.	.	.
=51	=51	=51	=51	=51	=51
2D	1r	0A]	4a]	2dd	1a]
.	.	.	8g	.	.
.	.	.	8f	.	.
2C#	.	.	2e	2ee	.
1D	2r	.	4f	[1dd	1a
.	.	.	2g	.	.
.	[2d	.	.	.	.
.	.	.	4f	.	.
=52	=52	=52	=52	=52	=52
0G	2d]	[0G	[0g	1dd]	2.b
.	2G	.	.	.	.
.	.	.	.	.	4cc
.	2B	.	.	1b	1dd
.	2d	.	.	.	.
=53	=53	=53	=53	=53	=53
0C	0c	1G_	1g_	0cc	0ee
.	.	1G_	1g_	.	.
=54	=54	=54	=54	=54	=54
0G	0d	0G]	0g]	0b	0dd
==	==	==	==	==	==
*-	*-	*-	*-	*-	*-
!!!CDT: 1525/^1526/-1594/2/2
!!!OCY: Italia
!!!AGN: Mass (Tenor)
!!!AST: renaissance, vocal
!!!ASW: Popular Song
!!!PWK: Masses, Book 3
!!!RNB: Cadence finals: C,D
!!!YOR: Le Opere Complete, v. 6, p. 97
!!!YOO: Rome, Italy: Fratelli Scalera
!!!END: 1992//
!!!EED: John Miller
!!!YEC: Copyright 2000, John Miller
!!!YEN: United States of America
!!!YEM: Rights to all derivative electronic formats reserved.
!!!YEM: Refer to licensing agreement for further details.
!!!YEM: This file must be accompanied by the licensing agreement.
!!!YEM: A copy of the licensing agreement may be found at http://www.music-cog.ohio-state.edu/HumdrumDatabases/Palestrina/license.txt
!!!EMD: converted to Humdrum by Bret Aarden
